src/lib/packages/icons/src/assets/filled/comment-settings.svg

<svg width="24" height="24" viewBox="0 0 24 24" fill="none" xmlns="http://www.w3.org/2000/svg">
<path d="M13.02 12C13.02 12.552 12.573 13 12.02 13C11.468 13 11.0149 12.552 11.0149 12C11.0149 11.448 11.458 11 12.01 11H12.02C12.572 11 13.02 11.448 13.02 12ZM21 12.001C21 17.002 16.97 20.002 12 20.002C10.72 20.002 9.50991 19.802 8.40991 19.422C7.06991 20.852 4.87996 21.0419 3.45996 20.9919C3.02996 20.9819 2.83992 20.432 3.16992 20.152C4.25992 19.272 4.79995 18.172 4.94995 17.212C3.72995 15.892 3 14.121 3 12.001C3 6.99998 7.03 4 12 4C16.97 4 21 6.99998 21 12.001ZM15.1809 12.002C15.1809 11.525 15.4419 11.083 15.8679 10.844L16 10.769L15.083 9.23096L14.9519 9.30505C14.5249 9.54405 13.999 9.54398 13.573 9.30298C13.149 9.06398 12.8879 8.62505 12.8879 8.14905C12.8879 8.06605 12.8189 8 12.7339 8H11.209C11.124 8 11.0549 8.06705 11.0549 8.14905C11.0549 8.62405 10.7941 9.06398 10.3711 9.30298C9.94509 9.54298 9.41894 9.54405 8.99194 9.30505C8.91994 9.26405 8.82691 9.28801 8.78491 9.35901L8.02002 10.642C7.97802 10.712 8.00295 10.802 8.07495 10.843L8.0769 10.844C8.5009 11.083 8.76194 11.521 8.76294 11.996C8.76394 12.474 8.5029 12.916 8.0769 13.156L8.07495 13.157C8.00195 13.198 7.97802 13.288 8.02002 13.359L8.78394 14.641C8.82594 14.712 8.91894 14.7359 8.99194 14.6949C9.41894 14.4559 9.94412 14.456 10.3701 14.697C10.7941 14.936 11.054 15.376 11.054 15.851C11.054 15.933 11.123 16 11.208 16H12.7351C12.8201 16 12.8889 15.933 12.8889 15.851C12.8889 15.376 13.15 14.936 13.574 14.697C14 14.457 14.5259 14.4559 14.9529 14.6949C15.0259 14.7359 15.1179 14.712 15.1599 14.641L15.925 13.358C15.967 13.288 15.9421 13.198 15.8701 13.157L15.8689 13.156C15.4429 12.917 15.1819 12.478 15.1809 12.002Z" fill="currentColor"/>
</svg>

<svg xmlns="http://www.w3.org/2000/svg" width="24" height="24" fill="none"><path fill="currentColor" d="M13.02 12a1 1 0 0 1-1 1 1.005 1.005 0 0 1-1.005-1c0-.552.443-1 .995-1h.01a1 1 0 0 1 1 1Zm7.98.001c0 5.001-4.03 8.001-9 8.001-1.28 0-2.49-.2-3.59-.58-1.34 1.43-3.53 1.62-4.95 1.57-.43-.01-.62-.56-.29-.84 1.09-.88 1.63-1.98 1.78-2.94C3.73 15.892 3 14.121 3 12.001 3 7 7.03 4 12 4s9 3 9 8.001Zm-5.82.001c0-.477.262-.919.688-1.158l.132-.075-.917-1.538-.131.074a1.41 1.41 0 0 1-1.379-.002 1.327 1.327 0 0 1-.685-1.154.151.151 0 0 0-.154-.149h-1.525a.152.152 0 0 0-.154.15c0 .474-.26.914-.684 1.153-.426.24-.952.241-1.38.002a.153.153 0 0 0-.206.054l-.765 1.283a.145.145 0 0 0 .055.201l.002.001c.424.239.685.677.686 1.152 0 .478-.26.92-.686 1.16l-.002.001a.145.145 0 0 0-.055.202l.764 1.282a.154.154 0 0 0 .208.054 1.409 1.409 0 0 1 1.378.002c.424.239.684.679.684 1.154 0 .082.069.149.154.149h1.527a.152.152 0 0 0 .154-.149c0-.475.261-.915.685-1.154.426-.24.952-.241 1.379-.002a.153.153 0 0 0 .207-.054l.765-1.283a.145.145 0 0 0-.055-.201l-.001-.001a1.328 1.328 0 0 1-.688-1.154Z"/></svg>
